X: 556
T: Polska efter Helmer Larsson
S: efter Helmer Larsson
O: Bergsjö, Hälsingland
R: Polska
Z: Håkan Lidén,2008-09-28
M: 3/4
L: 1/8
K: Gdor
V:1
D>F GB AG | F>G AA/F/ G2 | G>B df ed | ce/c/ d2 d2 | 
D>F GB AG | F>G A/B/A/F/ G2 | G>B df ed | ce/c/ dd/B/ GB | AD Dc BA | 
FA/F/ [G,2G2] [G,2G2] :: d>c Bd fd | c=B/d/ cA F2 | B2 G/^F/G/B/ dB | B>A AA/^F/ D2 | 
D>G GB AG | A>^F Ac cd | B>A G^F GB | A^F/d/ [G,2G2] [G,2G2] :|]
V:2
G,>A, B,D CB, | A,>B, CC/A,/ [B,2D2] | D>G Bd cB | AG/E/ [A,2^F2] [A,2F2] |
G,>A, B,D CB, | A,>B, C/D/C/A,/ [B,2D2] | D>G Bd cB | Gc/A/ BB/G/ DG | FD A,F DC |
A,C/A,/ [B,2D2] [B,2D2] :: B>F DF dB | AG/=B/ AF C2 | D2 B,/A,/B,/D/ BG | G>^F FF/D/ A,2 |
B,>D DG ^FE | ^F>D FA AB | G>D B,A, B,D | CA, [B,2D2] [B,2D2] :|]
(:musicend:)

Ingår i kategorin [[!andrastämma]].
(:music:)
